X: 3
T: Miss Catherine Gray
C: Neil Barron 2002
T: Dance: Cathy's Wedding (and Colin's too)
N: Dance at Cathy and Colin Bray's wedding party in April 2002
B: Social Dances 2002
R: jig
Z: 2014 John Chambers <jc:trillian.mit.edu>
M: 6/8
L: 1/8
K: D
A | "D"d2A "G"Bcd |  "D"A2G     F2A | "Em" A2G "A7"EFG | "D"B2A "A7"A2 \
A | "D"d2A "G"Bcd |  "D"A2G "B7"F2A | "Em" AGF "A7"E2A | "D"D3-     D2 :|
D |"A7"C2D    ECA,|  "D"F2A     D2A | "E7"^G2A     BGE | "A"c2e     A2 \
D |"A7"C2D    ECA,|  "D"F2A     D2A | "Em" AGF "A7"E2A | "D"D3-     D2 |]
D |"A7"C2D    ECA,|  "D"F2A     D2A | "E7"^G2A     BGE | "A"c2e     A2 \
A | "D"d2A "G"Bcd |"F#7"A2G "B7"F2A | "Em" AGF "A7"E2A | "D"D3-     D2 |]

%%sep 1 1 500
%%sep 1 1 500
